app/img/icons/Performance.svg

<svg width="17" height="14" viewBox="0 0 17 14" fill="none" xmlns="http://www.w3.org/2000/svg">
<path d="M8.50023 -4.41139e-08C10.0307 0.000219939 11.5327 0.413605 12.8478 1.19653C14.1629 1.97945 15.2422 3.10286 15.9719 4.44821C16.7016 5.79356 17.0545 7.31094 16.9935 8.84021C16.9325 10.3695 16.4597 11.8539 15.6252 13.1368C15.5608 13.2355 15.4729 13.3166 15.3693 13.3728C15.2657 13.4289 15.1498 13.4583 15.0319 13.4583L1.96859 13.4583C1.85078 13.4583 1.73483 13.4289 1.63124 13.3728C1.52766 13.3166 1.43971 13.2355 1.37537 13.1368C0.540819 11.8539 0.0680847 10.3695 0.00705714 8.84023C-0.0539723 7.31097 0.298967 5.7936 1.02863 4.44825C1.75828 3.10291 2.8376 1.97949 4.15266 1.19656C5.46772 0.413632 6.96975 0.000235861 8.50023 -4.41139e-08V-4.41139e-08ZM2.36429 12.0417L14.6362 12.0417C15.1385 11.173 15.4495 10.207 15.5481 9.20833L14.1669 9.20833L14.1669 7.79167L15.5481 7.79167C15.4719 7.03067 15.2719 6.28724 14.9561 5.5907L13.762 6.28008L13.0537 5.05325L14.2459 4.3651C13.7986 3.74547 13.2548 3.20163 12.6351 2.75435L11.9467 3.94666L10.7199 3.23832L11.4095 2.04425C10.713 1.72837 9.96956 1.52835 9.20856 1.45208L9.20856 2.83333L7.79189 2.83333L7.79189 1.45208C7.0309 1.52832 6.28746 1.72831 5.59092 2.04416L6.28031 3.23823L5.05348 3.94657L4.36533 2.75435C3.74569 3.20163 3.20186 3.74547 2.75458 4.3651L3.94688 5.05352L3.23855 6.28035L2.04447 5.59096C1.72862 6.28741 1.5286 7.03076 1.45231 7.79167L2.83356 7.79167L2.83356 9.20833L1.45231 9.20833C1.55098 10.207 1.86191 11.173 2.36429 12.0417Z" fill="#B8BEC1"/>
<path d="M6.98235 5.30225L8.07637 7.1262C8.5684 7.02559 9.08017 7.10219 9.52118 7.34247C9.96218 7.58275 10.304 7.97123 10.4863 8.43921C10.6685 8.9072 10.6794 9.42455 10.517 9.8998C10.3546 10.375 10.0295 10.7776 9.59895 11.0362C9.16845 11.2948 8.66036 11.3929 8.16453 11.3131C7.66869 11.2333 7.21705 10.9807 6.88945 10.6C6.56186 10.2194 6.37941 9.73513 6.37438 9.23294C6.36934 8.73074 6.54204 8.24295 6.86193 7.85579L5.76756 6.03112L6.98235 5.30225ZM8.49995 9.91668C8.64004 9.91668 8.77699 9.87514 8.89348 9.79731C9.00996 9.71948 9.10075 9.60885 9.15436 9.47942C9.20798 9.34999 9.222 9.20757 9.19467 9.07016C9.16734 8.93276 9.09988 8.80655 9.00082 8.70748C8.90175 8.60842 8.77554 8.54096 8.63814 8.51363C8.50074 8.4863 8.35831 8.50032 8.22888 8.55394C8.09945 8.60755 7.98883 8.69834 7.91099 8.81482C7.83316 8.93131 7.79162 9.06826 7.79162 9.20835C7.79183 9.39615 7.86652 9.57619 7.99932 9.70899C8.13211 9.84178 8.31215 9.91647 8.49995 9.91668Z" fill="#B8BEC1"/>
</svg>

<svg width="17" height="14" fill="none" xmlns="http://www.w3.org/2000/svg"><path d="M8.5 0a8.501 8.501 0 017.125 13.137.71.71 0 01-.593.321H1.969a.708.708 0 01-.594-.321A8.501 8.501 0 018.5 0zM2.364 12.042h12.272a7.043 7.043 0 00.912-2.834h-1.381V7.792h1.381a7.025 7.025 0 00-.592-2.201l-1.194.69-.708-1.228 1.192-.688a7.141 7.141 0 00-1.61-1.61l-.69 1.192-1.226-.709.69-1.194a7.025 7.025 0 00-2.201-.592v1.381H7.792v-1.38a7.025 7.025 0 00-2.201.591l.69 1.194-1.228.709-.688-1.193a7.142 7.142 0 00-1.61 1.611l1.192.689-.708 1.226-1.195-.689a7.025 7.025 0 00-.592 2.2h1.382v1.417H1.452c.099.999.41 1.965.912 2.834z" fill="#B8BEC1"/><path d="M6.982 5.302l1.094 1.824a2.129 2.129 0 11-1.214.73L5.768 6.03l1.214-.729zM8.5 9.917a.708.708 0 100-1.417.708.708 0 000 1.417z" fill="#B8BEC1"/></svg>
